sliced-svg/output/0081-pipi.svg

<?xml version="1.0" encoding="UTF-8"?><svg xmlns="http://www.w3.org/2000/svg" xmlns:xlink="http://www.w3.org/1999/xlink" width="1000px" height="1000px" version="1.1"><g id="surface1"><path style="stroke:none;fill-rule:nonzero;fill:rgb(0%,0%,0%);fill-opacity:1" d="M450 216.671875C450 244.285156 427.613281 266.671875 400 266.671875 372.386719 266.671875 350 244.285156 350 216.671875 350 189.054688 372.386719 166.671875 400 166.671875 427.613281 166.671875 450 189.054688 450 216.671875zM650 216.671875C650 244.285156 627.613281 266.671875 600 266.671875 572.386719 266.671875 550 244.285156 550 216.671875 550 189.054688 572.386719 166.671875 600 166.671875 627.613281 166.671875 650 189.054688 650 216.671875zM650 216.671875"/><path style="fill:none;stroke-width:1;stroke-linecap:round;stroke-linejoin:round;stroke:rgb(0%,0%,0%);stroke-opacity:1;stroke-miterlimit:4" d="M27 167.775 33 167.775M27 172.925 33 172.925M27 170.35 33 170.35M30 165.7 30 175" transform="matrix(50,0,0,50,-1000,-8000)"/></g></svg>

<svg xmlns="http://www.w3.org/2000/svg" width="1000" height="1000"><defs/><path d="M450 216.672c0 27.613-22.387 50-50 50s-50-22.387-50-50c0-27.617 22.387-50 50-50s50 22.383 50 50zm200 0c0 27.613-22.387 50-50 50s-50-22.387-50-50c0-27.617 22.387-50 50-50s50 22.383 50 50zm0 0"/><path d="M350 388.75h300m-300 257.5h300M350 517.5h300M500 285v465" fill="none" stroke-linecap="round" stroke-linejoin="round" stroke="#000" stroke-width="50"/></svg>
